svg/fluentui-system-icons/ic_fluent_code_fs_rectangle_16_filled.svg

<svg xmlns="http://www.w3.org/2000/svg" width="16" height="16"><path d="M9 9h1V8H9v1Zm3.25-6h-9.5C1.785 3 1 3.785 1 4.75v7.5c0 .965.785 1.75 1.75 1.75h9.5c.965 0 1.75-.785 1.75-1.75v-7.5C14 3.785 13.215 3 12.25 3ZM5.963 6.691A.502.502 0 0 1 5.5 7H4v1h1a.5.5 0 1 1 0 1H4v1.5a.5.5 0 1 1-1 0v-4a.5.5 0 0 1 .5-.5h2a.506.506 0 0 1 .354.146.498.498 0 0 1 .109.545ZM11.5 9a.5.5 0 1 1 0 1H11v.5a.5.5 0 1 1-1 0V10H9v.5a.5.5 0 1 1-1 0V10h-.5a.498.498 0 0 1-.5-.5.5.5 0 0 1 .5-.5H8V8h-.5a.498.498 0 0 1-.5-.5.5.5 0 0 1 .5-.5H8v-.5a.5.5 0 1 1 1 0V7h1v-.5a.5.5 0 1 1 1 0V7h.5a.5.5 0 1 1 0 1H11v1h.5Z"/></svg>

<svg width="16" height="16" viewBox="0 0 16 16" fill="none" xmlns="http://www.w3.org/2000/svg">
<path d="M9 9H10V8H9V9ZM12.25 3H2.75C1.785 3 1 3.785 1 4.75V12.25C1 13.215 1.785 14 2.75 14H12.25C13.215 14 14 13.215 14 12.25V4.75C14 3.785 13.215 3 12.25 3ZM5.963 6.691C5.925 6.782 5.861 6.861 5.778 6.916C5.695 6.971 5.599 7 5.5 7H4V8H5C5.133 8 5.26 8.053 5.354 8.146C5.448 8.24 5.5 8.367 5.5 8.5C5.5 8.633 5.447 8.76 5.354 8.854C5.261 8.948 5.133 9 5 9H4V10.5C4 10.633 3.947 10.76 3.854 10.854C3.76 10.948 3.633 11 3.5 11C3.367 11 3.24 10.947 3.146 10.854C3.052 10.76 3 10.633 3 10.5V6.5C3 6.367 3.053 6.24 3.146 6.146C3.24 6.052 3.367 6 3.5 6H5.5C5.566 6 5.631 6.013 5.692 6.038C5.753 6.063 5.808 6.1 5.854 6.146C5.924 6.216 5.972 6.305 5.991 6.402C6.01 6.499 6 6.6 5.963 6.691ZM11.5 9C11.633 9 11.76 9.053 11.854 9.146C11.948 9.24 12 9.367 12 9.5C12 9.633 11.947 9.76 11.854 9.854C11.76 9.948 11.633 10 11.5 10H11V10.5C11 10.633 10.947 10.76 10.854 10.854C10.76 10.948 10.633 11 10.5 11C10.367 11 10.24 10.947 10.146 10.854C10.052 10.76 10 10.633 10 10.5V10H9V10.5C9 10.633 8.947 10.76 8.854 10.854C8.76 10.948 8.633 11 8.5 11C8.367 11 8.24 10.947 8.146 10.854C8.052 10.76 8 10.633 8 10.5V10H7.5C7.367 10 7.24 9.947 7.146 9.854C7.052 9.761 7 9.633 7 9.5C7 9.367 7.053 9.24 7.146 9.146C7.24 9.052 7.367 9 7.5 9H8V8H7.5C7.367 8 7.24 7.947 7.146 7.854C7.052 7.761 7 7.633 7 7.5C7 7.367 7.053 7.24 7.146 7.146C7.24 7.052 7.367 7 7.5 7H8V6.5C8 6.367 8.053 6.24 8.146 6.146C8.24 6.052 8.367 6 8.5 6C8.633 6 8.76 6.053 8.854 6.146C8.948 6.24 9 6.367 9 6.5V7H10V6.5C10 6.367 10.053 6.24 10.146 6.146C10.24 6.052 10.367 6 10.5 6C10.633 6 10.76 6.053 10.854 6.146C10.948 6.24 11 6.367 11 6.5V7H11.5C11.633 7 11.76 7.053 11.854 7.146C11.948 7.24 12 7.367 12 7.5C12 7.633 11.947 7.76 11.854 7.854C11.76 7.948 11.633 8 11.5 8H11V9H11.5Z" fill="#212121"/>
</svg>
